X: 1135
T: İbrişim Örmüyorlar
C: (Anonim)
O: Turkey
F: http://compmusic.upf.edu/node/140
N: rast--turku--nimsofyan--ibrisim_ormuyorlar--
N: makam= rast
N: form= turku
N: usul= nimsofyan = 2/4
M: 2/4
L: 1/16
K: C _1/4B ^f  
Q: 1/4=102
%%MIDI tuningsystem comma53
G2A2 G2A2  | G2A2 G2A2  | G2A2 G2A2  | B3A AGFE  | \
w:  ARANAĞME  |   |   |   | 
D2cc cBA2  | 
w:   | 
BABc BAG2  | A2A2 dcBA  | GABc dcd2  | z2cc cBA2  | 
w:   |   |   |   | 
BABc BAG2  | A2A2 dcBA  | G8  | z2GG G2A2  | \
w:   |   |   |  İb ri şim  ör  | 
B3c BAAG  | 
w:  mü *  yor *  lar   | 
B3A AGFE  | D2GG G2A2  | B3c BAAG  | B3A G4  | \
w:  oy  *  oy   |  *  İb ri şim  ör  |  mü *  yor *  lar   |  oy  *  oy    | 
zc2c cBA2  | 
w:  Sev mi şim  *  ver  | 
B3c BAG2  | A2A2 dcBA  | GABc d{e}cd2  | \
w:  mi *  yor *  lar   |  Da ya na *  mam   |  ben    | 
zc2c cBA2  | 
w:  Sev mi şim  *  ver  | 
B3c BAG2  | A2A2 dcBA  | G8  | zG2G G2A2  | \
w:  mi *  yor *  lar   |  Da ya na *  mam   |  ben    |  Tan rı nın  za  | 
B3c BAAG  | 
w:  lim *  le *  ri   | 
B3{c}A AGFE  | D2GG G2A2  | B3c BAAG  | \
w:  oy  *  *  oy   |  *  Tan rı nın  za  |  lim *  le *  ri   | 
B3A G4  | cc3 cBA2  | 
w:  oy  *  oy    |  Mü na sip  *  gör  | 
B3c BAG2  | A2A2 dcBA  | GABc d{e}cd2  | \
w:  mü *  yor *  lar   |  Da ya na *  mam   |  ben    | 
cc3 cBA2  | 
w:  Mü na sip  *  gör  | 
B3c BAG2  | A2A2 dcBA  | G8  | G2A2 G2A2  | \
w:  mü *  yor *  lar   |  Da ya na *  mam   |  ben    |  Al tın  yü zük   | 
G2A2 G2A2  | G2A2 G2A2  | 
w:  hoş  bi le zik   |  kol lar  na zik   | 
B3A AGFE  | Dzcc cBA2  | B2Bc BAG2  | A2AG dcBA  | 
w:  oy  *  oy    |  *  Ben  yâ rim *  den   |  ay rıl *  mı *  şım   |  ba na  *  ya *  zık   | 
GABc dcd2  | Dzcc cBA2  | B2Bc BAG2  | A2AG dcBA  | 
w:  oy    |  *  Ben  yâ rim *  den   |  ay rıl *  mı *  şım   |  ba na  *  ya *  zık   | 
G8  | G2A2 G2A2  | G2A2 G2A2  | G2A2 G2A2  | \
w:  oy    |  ARANAĞME  |   |   | 
B3A AGFE  | D2cc cBA2  | 
w:   |   | 
BABc BAG2  | A2A2 dcBA  | GABc dcd2  | z2cc cBA2  | 
w:   |   |   |   | 
BABc BAG2  | A2A2 dcBA  | G8  | z2GG G2A2  | \
w:   |   |   |  İb ri şim  ör  | 
B3c BAAG  | 
w:  mü *  yor *  lar   | 
B3A AGFE  | D2GG G2A2  | B3c BAAG  | B3A G4  | \
w:  oy  *  oy   |  *  İb ri şim  ör  |  mü *  yor *  lar   |  oy  *  oy    | 
zc2c cBA2  | 
w:  Sev mi şim  *  ver  | 
B3c BAG2  | A2A2 dcBA  | GABc d{e}cd2  | \
w:  mi *  yor *  lar   |  Da ya na *  mam   |  ben    | 
zc2c cBA2  | 
w:  Sev mi şim  *  ver  | 
B3c BAG2  | A2A2 dcBA  | G8  | zG2G G2A2  | \
w:  mi *  yor *  lar   |  Da ya na *  mam   |  ben    |  Tan rı nın  za  | 
B3c BAAG  | 
w:  lim *  le *  ri   | 
B3{c}A AGFE  | D2GG G2A2  | B3c BAAG  | \
w:  oy  *  *  oy   |  *  Tan rı nın  za  |  lim *  le *  ri   | 
B3A G4  | cc3 cBA2  | 
w:  oy  *  oy    |  Mü na sip  *  gör  | 
B3c BAG2  | A2A2 dcBA  | GABc d{e}cd2  | \
w:  mü *  yor *  lar   |  Da ya na *  mam   |  ben    | 
cc3 cBA2  | 
w:  Mü na sip  *  gör  | 
B3c BAG2  | A2A2 dcBA  | G8  | G2A2 G2A2  | \
w:  mü *  yor *  lar   |  Da ya na *  mam   |  ben    |  Al tın  yü zük   | 
G2A2 G2A2  | G2A2 G2A2  | 
w:  hoş  bi le zik   |  kol lar  na zik   | 
B3A AGFE  | Dzcc cBA2  | B2Bc BAG2  | A2AG dcBA  | 
w:  oy  *  oy    |  *  Ben  yâ rim *  den   |  ay rıl *  mı *  şım   |  ba na  *  ya *  zık   | 
GABc dcd2  | Dzcc cBA2  | B2Bc BAG2  | A2AG dcBA  | 
w:  oy    |  *  Ben  yâ rim *  den   |  ay rıl *  mı *  şım   |  ba na  *  ya *  zık   | 
G8  | |


